X: 40
T: Bedstefaderdans
B:[[Notböcker/Melodier til gamle danske Almuedanse for Violin solo]]
O:Danmark
Z:Søren Bak Vestergaard
M: 3/4
L: 1/4
K: G
D|G> G G|G A B|(B A) A|A2 A|B> c d|d c B|\
(B A) A|A2 D|G> G G|G A B|(B A) A|A2 A|B> c d|\
d c B|(B A) A|A2 z/||[M: 2/4][L: 1/8]d|.B.G .A.F|(G/F/G/A/) (.G.d)|\
.B.G .A.F|G2 z !upbow!d|.B.G .A.F|(G/F/G/A/) (.G.d)|.B.G .A.F|G4|]

